usr/share/icons/elementary-xfce/actions/24/help-hint.svg

<?xml version="1.0" encoding="UTF-8" standalone="no"?>
<!-- Created with Inkscape (http://www.inkscape.org/) -->

<svg
   xmlns:dc="http://purl.org/dc/elements/1.1/"
   xmlns:cc="http://creativecommons.org/ns#"
   xmlns:rdf="http://www.w3.org/1999/02/22-rdf-syntax-ns#"
   xmlns:svg="http://www.w3.org/2000/svg"
   xmlns="http://www.w3.org/2000/svg"
   xmlns:xlink="http://www.w3.org/1999/xlink"
   xmlns:sodipodi="http://sodipodi.sourceforge.net/DTD/sodipodi-0.dtd"
   xmlns:inkscape="http://www.inkscape.org/namespaces/inkscape"
   version="1.1"
   width="24"
   height="24"
   id="svg4101"
   inkscape:version="0.48.2 r9819"
   sodipodi:docname="help-hint.svg">
  <sodipodi:namedview
     pagecolor="#ffffff"
     bordercolor="#666666"
     borderopacity="1"
     objecttolerance="10"
     gridtolerance="10"
     guidetolerance="10"
     inkscape:pageopacity="0"
     inkscape:pageshadow="2"
     inkscape:window-width="1280"
     inkscape:window-height="753"
     id="namedview32"
     showgrid="false"
     inkscape:zoom="23.291667"
     inkscape:cx="12"
     inkscape:cy="12"
     inkscape:window-x="0"
     inkscape:window-y="24"
     inkscape:window-maximized="1"
     inkscape:current-layer="svg4101" />
  <defs
     id="defs4103">
    <linearGradient
       id="linearGradient3707-319-631-407-324-3-8">
      <stop
         id="stop3760-7-3"
         style="stop-color:#185f9a;stop-opacity:1"
         offset="0" />
      <stop
         id="stop3762-8-4"
         style="stop-color:#599ec9;stop-opacity:1"
         offset="1" />
    </linearGradient>
    <linearGradient
       id="linearGradient4011">
      <stop
         id="stop4013"
         style="stop-color:#ffffff;stop-opacity:1"
         offset="0" />
      <stop
         id="stop4015"
         style="stop-color:#ffffff;stop-opacity:0.23529412"
         offset="0.507761" />
      <stop
         id="stop4017"
         style="stop-color:#ffffff;stop-opacity:0.15686275"
         offset="0.83456558" />
      <stop
         id="stop4019"
         style="stop-color:#ffffff;stop-opacity:0.39215687"
         offset="1" />
    </linearGradient>
    <linearGradient
       id="linearGradient2867-449-88-871-390-598-476-591-434-148-57-177-3-8">
      <stop
         id="stop3750-8-9"
         style="stop-color:#90dbec;stop-opacity:1"
         offset="0" />
      <stop
         id="stop3752-3-2"
         style="stop-color:#42baea;stop-opacity:1"
         offset="0.26238" />
      <stop
         id="stop3754-7-2"
         style="stop-color:#3689e6;stop-opacity:1"
         offset="0.704952" />
      <stop
         id="stop3756-9-3"
         style="stop-color:#2b63a0;stop-opacity:1"
         offset="1" />
    </linearGradient>
    <linearGradient
       id="linearGradient8838">
      <stop
         id="stop8840"
         style="stop-color:#000000;stop-opacity:1"
         offset="0" />
      <stop
         id="stop8842"
         style="stop-color:#000000;stop-opacity:0"
         offset="1" />
    </linearGradient>
    <linearGradient
       inkscape:collect="always"
       xlink:href="#linearGradient4011"
       id="linearGradient3021"
       gradientUnits="userSpaceOnUse"
       gradientTransform="matrix(0.5135135,0,0,0.5135135,-24.836132,-1.021284)"
       x1="71.204407"
       y1="6.2375584"
       x2="71.204407"
       y2="44.340794" />
    <radialGradient
       inkscape:collect="always"
       xlink:href="#linearGradient2867-449-88-871-390-598-476-591-434-148-57-177-3-8"
       id="radialGradient3024"
       gradientUnits="userSpaceOnUse"
       gradientTransform="matrix(0,1.1468756,-1.2132576,-3.1216191e-8,22.251804,-6.9430891)"
       cx="6.0693989"
       cy="8.4497671"
       fx="6.0693989"
       fy="8.4497671"
       r="19.99999" />
    <linearGradient
       inkscape:collect="always"
       xlink:href="#linearGradient3707-319-631-407-324-3-8"
       id="linearGradient3026"
       gradientUnits="userSpaceOnUse"
       gradientTransform="matrix(0.53851149,0,0,0.53851149,-0.924275,-0.9242757)"
       x1="24"
       y1="44"
       x2="24"
       y2="3.8990016" />
    <radialGradient
       inkscape:collect="always"
       xlink:href="#linearGradient8838"
       id="radialGradient3029"
       gradientUnits="userSpaceOnUse"
       gradientTransform="matrix(1.1294118,0,0,0.2823525,-58.729414,19.694118)"
       cx="62.625"
       cy="4.625"
       fx="62.625"
       fy="4.625"
       r="10.625" />
    <linearGradient
       inkscape:collect="always"
       xlink:href="#linearGradient3707-319-631-407-324-3-8-4"
       id="linearGradient3018-1"
       gradientUnits="userSpaceOnUse"
       x1="11.61343"
       y1="30.760435"
       x2="11.61343"
       y2="7.9332342"
       gradientTransform="translate(0,-8)" />
    <linearGradient
       id="linearGradient3707-319-631-407-324-3-8-4">
      <stop
         id="stop3760-7-3-9"
         style="stop-color:#185f9a;stop-opacity:1"
         offset="0" />
      <stop
         id="stop3762-8-4-2"
         style="stop-color:#599ec9;stop-opacity:1"
         offset="1" />
    </linearGradient>
  </defs>
  <metadata
     id="metadata4106">
    <rdf:RDF>
      <cc:Work
         rdf:about="">
        <dc:format>image/svg+xml</dc:format>
        <dc:type
           rdf:resource="http://purl.org/dc/dcmitype/StillImage" />
        <dc:title></dc:title>
      </cc:Work>
    </rdf:RDF>
  </metadata>
  <path
     inkscape:connector-curvature="0"
     style="opacity:0.3;fill:url(#radialGradient3029);fill-opacity:1;fill-rule:evenodd;stroke:none;stroke-width:0.99999988;marker:none;visibility:visible;display:inline;overflow:visible"
     id="path8836"
     d="m 24,21 c 0,1.656854 -5.372583,3 -12,3 C 5.3725826,24 -2.5e-7,22.656854 -2.5e-7,21 -2.5e-7,19.343146 5.3725826,18 12,18 c 6.627417,0 12,1.343146 12,3 l 0,0 z" />
  <path
     inkscape:connector-curvature="0"
     style="color:#000000;fill:url(#radialGradient3024);fill-opacity:1;fill-rule:nonzero;stroke:url(#linearGradient3026);stroke-width:1;stroke-linecap:round;stroke-linejoin:round;stroke-miterlimit:4;stroke-opacity:1;stroke-dasharray:none;stroke-dashoffset:0;marker:none;visibility:visible;display:inline;overflow:visible;enable-background:accumulate"
     id="path2555-7"
     d="M 12.000001,1.5 C 6.206464,1.5 1.4999998,6.206462 1.4999998,12 c 0,5.793538 4.7064641,10.500001 10.5000012,10.5 C 17.793536,22.5 22.500005,17.793538 22.5,12 22.5,6.206462 17.793536,1.5 12.000001,1.5 z" />
  <path
     inkscape:connector-curvature="0"
     style="opacity:0.5;color:#000000;fill:none;stroke:url(#linearGradient3021);stroke-width:0.99999988;stroke-linecap:round;stroke-linejoin:round;stroke-miterlimit:4;stroke-opacity:1;stroke-dasharray:none;stroke-dashoffset:0;marker:none;visibility:visible;display:inline;overflow:visible;enable-background:accumulate"
     id="path8655-6"
     d="M 21.5,11.999663 C 21.5,17.246537 17.246391,21.5 12.000121,21.5 6.7533684,21.5 2.5,17.246489 2.5,11.999663 c 0,-5.24663 4.2533684,-9.499662 9.500121,-9.499662 5.24627,0 9.499879,4.253032 9.499879,9.499662 l 0,0 z" />
  <path
     inkscape:connector-curvature="0"
     style="font-size:62.45826339999999988px;font-style:normal;font-variant:normal;font-weight:normal;font-stretch:normal;text-align:start;line-height:125%;writing-mode:lr-tb;text-anchor:start;fill:url(#linearGradient3018-1);fill-opacity:1;stroke:none;font-family:Georgia;color:#000000;fill-rule:nonzero;marker:none;visibility:visible;display:inline;overflow:visible;enable-background:accumulate"
     id="text2315-0"
     d="m 10.599227,5.2866876 c 0.331945,2.810446 0.71217,5.6015494 0.99474,8.4230034 0.284211,0 0.617557,0 0.901768,0 0.234383,-2.709492 0.612431,-5.4026093 0.885143,-8.1087411 C 13.519892,4.960176 13.140325,4.1993772 12.359664,4.0436977 11.588256,3.8482122 10.7264,4.3322963 10.623826,5.0237719 c -0.01701,0.086803 -0.0246,0.1749017 -0.0246,0.2629157 l -2e-6,0 z m -0.09838,11.4264804 c -0.0351,0.836563 1.026892,1.492345 1.933628,1.227122 0.87824,-0.194275 1.340822,-1.151039 0.890723,-1.831132 -0.402917,-0.703026 -1.584447,-0.93466 -2.264126,-0.396605 -0.343566,0.244652 -0.571285,0.609885 -0.560225,1.000616 l 0,-1e-6 z" />
  <path
     inkscape:connector-curvature="0"
     style="font-size:62.4582634px;font-style:normal;font-variant:normal;font-weight:normal;font-stretch:normal;text-align:start;line-height:125%;writing-mode:lr-tb;text-anchor:start;fill:#ffffff;fill-opacity:1;stroke:none;font-family:Georgia"
     id="text2315"
     d="m 10.599227,6.2866872 c 0.331945,2.810446 0.71217,5.6015498 0.99474,8.4230038 0.284211,0 0.617557,0 0.901768,0 0.234383,-2.709492 0.612431,-5.4026097 0.885143,-8.1087415 C 13.519892,5.9601756 13.140325,5.1993768 12.359664,5.0436973 11.588256,4.8482118 10.7264,5.3322959 10.623826,6.0237715 c -0.01701,0.086803 -0.0246,0.1749017 -0.0246,0.2629157 l -2e-6,0 z m -0.09838,11.4264808 c -0.0351,0.836563 1.026892,1.492345 1.933628,1.227122 0.87824,-0.194275 1.340822,-1.151039 0.890723,-1.831132 -0.402917,-0.703026 -1.584447,-0.93466 -2.264126,-0.396605 -0.343566,0.244652 -0.571285,0.609885 -0.560225,1.000616 l 0,-1e-6 z" />
</svg>

<?xml version="1.0" encoding="UTF-8" standalone="no"?>
<!-- Created with Inkscape (http://www.inkscape.org/) -->
<svg
   xmlns:svg="http://www.w3.org/2000/svg"
   xmlns="http://www.w3.org/2000/svg"
   xmlns:xlink="http://www.w3.org/1999/xlink"
   version="1.0"
   width="24"
   height="24"
   id="svg2">
  <defs
     id="defs4">
    <linearGradient
       id="linearGradient8838">
      <stop
         id="stop8840"
         style="stop-color:#000000;stop-opacity:1"
         offset="0" />
      <stop
         id="stop8842"
         style="stop-color:#000000;stop-opacity:0"
         offset="1" />
    </linearGradient>
    <radialGradient
       cx="62.625"
       cy="4.625"
       r="10.625"
       fx="62.625"
       fy="4.625"
       id="radialGradient2501"
       xlink:href="#linearGradient8838"
       gradientUnits="userSpaceOnUse"
       gradientTransform="matrix(1.1294118,0,0,0.2823525,-58.729414,19.694118)" />
    <linearGradient
       id="linearGradient2490-182-124">
      <stop
         id="stop2788"
         style="stop-color:#1f4b6a;stop-opacity:1"
         offset="0" />
      <stop
         id="stop2790"
         style="stop-color:#4083c2;stop-opacity:1"
         offset="1" />
    </linearGradient>
    <linearGradient
       x1="18.379412"
       y1="44.980297"
       x2="18.379412"
       y2="3.0816143"
       id="linearGradient2498"
       xlink:href="#linearGradient2490-182-124"
       gradientUnits="userSpaceOnUse"
       gradientTransform="matrix(0.5160413,0,0,0.5160413,-0.384991,-0.3849911)" />
    <linearGradient
       id="linearGradient3242-187-536">
      <stop
         id="stop2778"
         style="stop-color:#8badea;stop-opacity:1"
         offset="0" />
      <stop
         id="stop2780"
         style="stop-color:#6396cd;stop-opacity:1"
         offset="0.26238" />
      <stop
         id="stop2782"
         style="stop-color:#3b7caf;stop-opacity:1"
         offset="0.66093999" />
      <stop
         id="stop2784"
         style="stop-color:#194c70;stop-opacity:1"
         offset="1" />
    </linearGradient>
    <radialGradient
       cx="23.895569"
       cy="3.9900031"
       r="20.397499"
       fx="23.895569"
       fy="3.9900031"
       id="radialGradient2496"
       xlink:href="#linearGradient3242-187-536"
       gradientUnits="userSpaceOnUse"
       gradientTransform="matrix(0,1.2316137,-1.6257082,0,18.486581,-28.720783)" />
    <linearGradient
       id="linearGradient4873">
      <stop
         id="stop4875"
         style="stop-color:#ffffff;stop-opacity:1"
         offset="0" />
      <stop
         id="stop4877"
         style="stop-color:#ffffff;stop-opacity:0"
         offset="1" />
    </linearGradient>
    <linearGradient
       x1="63.397362"
       y1="-12.489107"
       x2="63.397362"
       y2="5.4675598"
       id="linearGradient2493"
       xlink:href="#linearGradient4873"
       gradientUnits="userSpaceOnUse"
       gradientTransform="matrix(1.0862728,0,0,1.0862481,-55.56661,15.813638)" />
  </defs>
  <g
     id="layer1">
    <path
       d="M 24,21 C 24,22.656854 18.627417,24 12,24 C 5.3725828,24 -2.5e-07,22.656854 -2.5e-07,21 C -2.5e-07,19.343146 5.3725828,18 12,18 C 18.627417,18 24,19.343146 24,21 L 24,21 z"
       id="path8836"
       style="opacity:0.3;fill:url(#radialGradient2501);fill-opacity:1;fill-rule:evenodd;stroke:none;stroke-width:0.99999988;stroke-linecap:butt;stroke-linejoin:round;marker:none;marker-start:none;marker-mid:none;marker-end:none;stroke-miterlimit:4;stroke-dasharray:none;stroke-dashoffset:0;stroke-opacity:1;visibility:visible;display:inline;overflow:visible" />
    <path
       d="M 12.000002,1.501785 C 6.207449,1.501785 1.501785,6.2074466 1.501785,11.999999 C 1.501785,17.792553 6.207449,22.498218 12.000002,22.498215 C 17.792552,22.498215 22.498221,17.792553 22.498215,11.999999 C 22.498215,6.2074466 17.792552,1.501785 12.000002,1.501785 z"
       id="path2555"
       style="fill:url(#radialGradient2496);fill-opacity:1;stroke:url(#linearGradient2498);stroke-width:1.00365424;stroke-linecap:round;stroke-linejoin:round;stroke-miterlimit:4;stroke-dasharray:none;stroke-dashoffset:0;stroke-opacity:1" />
    <path
       d="M 21.499999,11.999663 C 21.499999,17.246537 17.24639,21.499999 12.00012,21.499999 C 6.7533674,21.499999 2.4999999,17.24649 2.4999999,11.999663 C 2.4999999,6.7530318 6.7533674,2.5000007 12.00012,2.5000007 C 17.24639,2.5000007 21.499999,6.7530318 21.499999,11.999663 L 21.499999,11.999663 z"
       id="path2463"
       style="opacity:0.4;fill:none;fill-opacity:1;fill-rule:nonzero;stroke:url(#linearGradient2493);stroke-width:0.99999994;stroke-miterlimit:4;stroke-dasharray:none;stroke-opacity:1" />
    <path
       d="M 10.599227,5.2866868 C 10.931172,8.0971327 11.311397,10.888236 11.593967,13.70969 C 11.878178,13.70969 12.211524,13.70969 12.495735,13.70969 C 12.730118,11.000199 13.108166,8.3070809 13.380878,5.600949 C 13.519892,4.9601751 13.140325,4.1993763 12.359664,4.0436969 C 11.588256,3.8482112 10.7264,4.3322956 10.623826,5.023771 C 10.606814,5.1105744 10.599224,5.1986728 10.599229,5.2866868 L 10.599227,5.2866868 z M 10.500847,16.713167 C 10.465746,17.54973 11.527739,18.205512 12.434475,17.94029 C 13.312715,17.746015 13.775297,16.789251 13.325198,16.109157 C 12.922281,15.406131 11.740751,15.174497 11.061072,15.712552 C 10.717506,15.957204 10.489787,16.322437 10.500847,16.713168 L 10.500847,16.713167 z"
       id="path3295"
       style="font-size:62.4582634px;font-style:normal;font-variant:normal;font-weight:normal;font-stretch:normal;text-align:start;line-height:125%;writing-mode:lr-tb;text-anchor:start;opacity:0.2;fill:#000000;fill-opacity:1;stroke:none;stroke-width:0.5;stroke-linecap:round;stroke-linejoin:round;stroke-miterlimit:4;stroke-dasharray:none;stroke-opacity:1;font-family:Georgia" />
    <path
       d="M 10.599227,6.2866871 C 10.931172,9.0971331 11.311397,11.888237 11.593967,14.709691 C 11.878178,14.709691 12.211524,14.709691 12.495735,14.709691 C 12.730118,12.000199 13.108166,9.3070812 13.380878,6.6009494 C 13.519892,5.9601755 13.140325,5.1993767 12.359664,5.0436972 C 11.588256,4.8482117 10.7264,5.3322958 10.623826,6.0237714 C 10.606814,6.1105747 10.599224,6.1986731 10.599229,6.2866871 L 10.599227,6.2866871 z M 10.500847,17.713168 C 10.465746,18.549731 11.527739,19.205513 12.434475,18.94029 C 13.312715,18.746015 13.775297,17.789251 13.325198,17.109158 C 12.922281,16.406132 11.740751,16.174498 11.061072,16.712553 C 10.717506,16.957205 10.489787,17.322438 10.500847,17.713169 L 10.500847,17.713168 z"
       id="text2315"
       style="font-size:62.4582634px;font-style:normal;font-variant:normal;font-weight:normal;font-stretch:normal;text-align:start;line-height:125%;writing-mode:lr-tb;text-anchor:start;fill:#ffffff;fill-opacity:1;stroke:none;stroke-width:0.5;stroke-linecap:round;stroke-linejoin:round;stroke-miterlimit:4;stroke-dasharray:none;stroke-opacity:1;font-family:Georgia" />
  </g>
</svg>
